static/big0_logo.svg

<svg xmlns="http://www.w3.org/2000/svg" width="429" height="120" viewBox="0 0 429 120"><path fill="#f1f5f9" d="M34.42 19.41q9.36 0 14.93 1.61 5.56 1.61 8.06 5.67 2.49 4.05 2.49 11.44 0 7.69-2.96 11.7t-9.72 4.63v.62q8.32.73 11.64 5.56t3.33 13.47q0 7.39-2.55 11.44t-7.9 5.67q-5.36 1.61-13.99 1.61-6.97 0-12.11-.05-5.15-.05-9.52-.26T7.18 92V20.24q4.16-.42 8.06-.57 3.9-.16 8.47-.21t10.71-.05M22.78 59.86v21.43h12.16q4.37 0 6.87-.83 2.49-.84 3.48-3.07.99-2.24.99-6.4 0-4.47-1.04-6.81t-3.59-3.28q-2.55-.93-7.02-1.04zm0-28.91v18.83h11.64q3.85-.11 6.09-.84 2.23-.72 3.17-2.8t.94-5.83q0-3.85-.99-5.87t-3.38-2.76-6.66-.73H22.78m47.84 9.67H85.9V92H70.62zm4.36-22.67h6.66q4.58 0 4.58 4.68v5.51q0 4.68-4.58 4.68h-6.66q-4.57 0-4.57-4.68v-5.51q0-4.68 4.57-4.68m44.2 21.32q8.12 0 13.11 1.35h16.95l-.83 6.56-6.45.83q1.35 3.12 1.35 7.59 0 5.72-2.29 9.31-2.28 3.59-7.64 5.25t-14.3 1.66q-5.2 0-9.15-.52-.42.52-.63 1.36-.62 1.76.21 3.32t3.64 1.88l18.93 2.18q8.11.83 11.44 4.52 3.33 3.7 3.33 10.77 0 6.65-2.71 10.24t-8.63 4.94q-5.93 1.35-15.81 1.35-8.11 0-13.36-.78t-8.32-2.54q-3.07-1.77-4.26-4.63-1.2-2.86-1.2-7.13 0-3.22 1.14-5.56 1.15-2.34 3.96-4.21 1.24-.94 3.12-1.67-1.77-1.66-2.5-3.84-.94-2.5-.52-5.1t1.98-4.68q1.04-1.56 2.7-2.5-3.54-1.56-5.3-4.26-2.4-3.54-2.4-9.36t2.34-9.41 7.75-5.25q5.41-1.67 14.35-1.67m-9.04 49.61q-1.67 1.35-2.34 2.6-.68 1.25-.68 3.33 0 2.39 1.04 3.69t3.8 1.77q2.75.47 7.54.47 4.99 0 7.8-.47t3.9-1.72 1.09-3.53q0-1.98-.78-2.92t-2.6-1.4q-1.82-.47-5.05-.88l-13.1-1.46q-.31.31-.62.52m8.94-40.14q-5.72 0-7.9 1.5-2.19 1.51-2.19 5.36t2.19 5.41q2.18 1.56 7.9 1.56t7.8-1.56 2.08-5.41-2.08-5.36q-2.08-1.5-7.8-1.5"/><path fill="#0d9488" d="M180.65 18.78q10.29 0 16.38 3.64t8.73 11.81q2.66 8.16 2.66 21.89t-2.66 21.89-8.73 11.81q-6.09 3.64-16.38 3.64-10.3 0-16.38-3.64-6.09-3.64-8.69-11.81t-2.6-21.89 2.6-21.89 8.69-11.81 16.38-3.64m-.11 12.48q-3.43 0-5.72 1.15-2.28 1.14-3.64 3.85-1.35 2.7-1.92 7.54t-.57 12.32q0 7.38.57 12.27t1.92 7.59 3.64 3.85 5.72 1.15q3.54 0 5.88-1.15 2.34-1.14 3.74-3.85t1.98-7.59.57-12.27q0-7.49-.57-12.32t-1.98-7.54-3.74-3.85-5.88-1.15"/><path fill="#f1f5f9" d="M276.87 19.2q8.53 0 14.41 1.82 5.87 1.82 9.46 5.98t5.25 11.28q1.67 7.13 1.67 17.84t-1.67 17.84q-1.66 7.12-5.25 11.28t-9.46 5.98-14.41 1.82q-8.21 0-15.08-.31t-13.1-.73V20.24q6.24-.42 13.05-.73t15.13-.31M264.6 31.47v49.09h.21q5.41.21 12.06.21 5.31 0 8.37-2.13 3.07-2.14 4.37-7.54t1.3-14.98-1.3-14.98-4.37-7.59-8.37-2.18h-11.33q-.52.1-.94.1m75.92 7.8q13 0 18.67 4.42t5.67 13.16q.1 7.07-3.54 10.55t-12.58 3.49h-18.31q.31 2.39.83 3.95 1.15 3.54 3.9 4.89t7.65 1.35q3.53 0 8.79-.26t10.55-.88l1.46 9.46q-3.02 1.46-6.87 2.29-3.84.83-7.9 1.19-4.06.37-7.8.37-9.78 0-15.76-2.86t-8.63-8.79T314 66.42q0-10.09 2.7-16.02t8.53-8.53 15.29-2.6m-10.4 22.99h14.35q3.54 0 4.53-1.51.98-1.51.98-4.21-.1-3.64-2.13-5.05t-6.81-1.4q-4.26 0-6.66 1.14-2.39 1.15-3.32 4.37-.73 2.5-.94 6.66m77.58-21.64h16.33l-16.95 47.74q-.62 1.66-1.92 2.65t-3.07.99h-13.42q-1.77 0-3.07-.99t-1.92-2.65l-16.95-47.74h16.33l9.46 32.14q.62 2.29 1.14 4.68t1.04 4.58h1.36q.62-2.29 1.19-4.63t1.2-4.63z"/><path stroke="#0d9488" stroke-linecap="round" stroke-width="9" d="m200 24-39 64"/><rect width="36.09" height="5" x="162.65" y="104" fill="#0d9488" rx="2"/></svg>

<svg xmlns="http://www.w3.org/2000/svg" viewBox="0 0 429 120" width="429" height="120">
<path d="M34.42 19.41L34.42 19.41Q43.78 19.41 49.35 21.02Q54.91 22.63 57.41 26.69Q59.90 30.74 59.90 38.13L59.90 38.13Q59.90 45.82 56.94 49.83Q53.98 53.83 47.22 54.46L47.22 54.46L47.22 55.08Q55.54 55.81 58.86 60.64Q62.19 65.48 62.19 74.11L62.19 74.11Q62.19 81.50 59.64 85.55Q57.10 89.61 51.74 91.22Q46.38 92.83 37.75 92.83L37.75 92.83Q30.78 92.83 25.64 92.78Q20.49 92.73 16.12 92.52Q11.75 92.31 7.18 92L7.18 92L7.18 20.24Q11.34 19.82 15.24 19.67Q19.14 19.51 23.71 19.46Q28.29 19.41 34.42 19.41ZM22.78 59.86L22.78 81.29Q28.29 81.29 34.94 81.29L34.94 81.29Q39.31 81.29 41.81 80.46Q44.30 79.62 45.29 77.39Q46.28 75.15 46.28 70.99L46.28 70.99Q46.28 66.52 45.24 64.18Q44.20 61.84 41.65 60.90Q39.10 59.97 34.63 59.86L34.63 59.86L22.78 59.86ZM22.78 30.95L22.78 49.78L34.42 49.78Q38.27 49.67 40.51 48.94Q42.74 48.22 43.68 46.14Q44.62 44.06 44.62 40.31L44.62 40.31Q44.62 36.46 43.63 34.44Q42.64 32.41 40.25 31.68Q37.86 30.95 33.59 30.95L33.59 30.95L23.30 30.95Q22.98 30.95 22.78 30.95L22.78 30.95Z M70.62 40.62L85.90 40.62L85.90 92L70.62 92L70.62 40.62ZM74.98 17.95L81.64 17.95Q86.22 17.95 86.22 22.63L86.22 22.63L86.22 28.14Q86.22 32.82 81.64 32.82L81.64 32.82L74.98 32.82Q70.41 32.82 70.41 28.14L70.41 28.14L70.41 22.63Q70.41 17.95 74.98 17.95L74.98 17.95Z M119.18 39.27L119.18 39.27Q127.30 39.27 132.29 40.62L132.29 40.62L149.24 40.62L148.41 47.18L141.96 48.01Q143.31 51.13 143.31 55.60L143.31 55.60Q143.31 61.32 141.02 64.91Q138.74 68.50 133.38 70.16Q128.02 71.82 119.08 71.82L119.08 71.82Q113.88 71.82 109.93 71.30L109.93 71.30Q109.51 71.82 109.30 72.66L109.30 72.66Q108.68 74.42 109.51 75.98Q110.34 77.54 113.15 77.86L113.15 77.86L132.08 80.04Q140.19 80.87 143.52 84.56Q146.85 88.26 146.85 95.33L146.85 95.33Q146.85 101.98 144.14 105.57Q141.44 109.16 135.51 110.51Q129.58 111.86 119.70 111.86L119.70 111.86Q111.59 111.86 106.34 111.08Q101.09 110.30 98.02 108.54Q94.95 106.77 93.76 103.91Q92.56 101.05 92.56 96.78L92.56 96.78Q92.56 93.56 93.70 91.22Q94.85 88.88 97.66 87.01L97.66 87.01Q98.90 86.07 100.78 85.34L100.78 85.34Q99.01 83.68 98.28 81.50L98.28 81.50Q97.34 79 97.76 76.40Q98.18 73.80 99.74 71.72L99.74 71.72Q100.78 70.16 102.44 69.22L102.44 69.22Q98.90 67.66 97.14 64.96L97.14 64.96Q94.74 61.42 94.74 55.60Q94.74 49.78 97.08 46.19Q99.42 42.60 104.83 40.94Q110.24 39.27 119.18 39.27ZM110.14 88.88L110.14 88.88Q108.47 90.23 107.80 91.48Q107.12 92.73 107.12 94.81L107.12 94.81Q107.12 97.20 108.16 98.50Q109.20 99.80 111.96 100.27Q114.71 100.74 119.50 100.74L119.50 100.74Q124.49 100.74 127.30 100.27Q130.10 99.80 131.20 98.55Q132.29 97.30 132.29 95.02L132.29 95.02Q132.29 93.04 131.51 92.10Q130.73 91.17 128.91 90.70Q127.09 90.23 123.86 89.82L123.86 89.82L110.76 88.36Q110.45 88.67 110.14 88.88ZM119.08 48.74Q113.36 48.74 111.18 50.24Q108.99 51.75 108.99 55.60Q108.99 59.45 111.18 61.01Q113.36 62.57 119.08 62.57Q124.80 62.57 126.88 61.01Q128.96 59.45 128.96 55.60Q128.96 51.75 126.88 50.24Q124.80 48.74 119.08 48.74Z" fill="#F1F5F9"></path>
<path d="M180.65 18.78L180.65 18.78Q190.94 18.78 197.03 22.42Q203.11 26.06 205.76 34.23Q208.42 42.39 208.42 56.12L208.42 56.12Q208.42 69.85 205.76 78.01Q203.11 86.18 197.03 89.82Q190.94 93.46 180.65 93.46L180.65 93.46Q170.35 93.46 164.27 89.82Q158.18 86.18 155.58 78.01Q152.98 69.85 152.98 56.12L152.98 56.12Q152.98 42.39 155.58 34.23Q158.18 26.06 164.27 22.42Q170.35 18.78 180.65 18.78ZM180.54 31.26L180.54 31.26Q177.11 31.26 174.82 32.41Q172.54 33.55 171.18 36.26Q169.83 38.96 169.26 43.80Q168.69 48.63 168.69 56.12L168.69 56.12Q168.69 63.50 169.26 68.39Q169.83 73.28 171.18 75.98Q172.54 78.69 174.82 79.83Q177.11 80.98 180.54 80.98L180.54 80.98Q184.08 80.98 186.42 79.83Q188.76 78.69 190.16 75.98Q191.57 73.28 192.14 68.39Q192.71 63.50 192.71 56.12L192.71 56.12Q192.71 48.63 192.14 43.80Q191.57 38.96 190.16 36.26Q188.76 33.55 186.42 32.41Q184.08 31.26 180.54 31.26Z" fill="#0D9488"></path>

<path d="M276.87 19.20L276.87 19.20Q285.40 19.20 291.28 21.02Q297.15 22.84 300.74 27Q304.33 31.16 305.99 38.28Q307.66 45.41 307.66 56.12Q307.66 66.83 305.99 73.96Q304.33 81.08 300.74 85.24Q297.15 89.40 291.28 91.22Q285.40 93.04 276.87 93.04L276.87 93.04Q268.66 93.04 261.79 92.73Q254.93 92.42 248.69 92L248.69 92L248.69 20.24Q254.93 19.82 261.74 19.51Q268.55 19.20 276.87 19.20ZM264.60 31.47L264.60 80.56Q264.70 80.56 264.81 80.56L264.81 80.56Q270.22 80.77 276.87 80.77L276.87 80.77Q282.18 80.77 285.24 78.64Q288.31 76.50 289.61 71.10Q290.91 65.69 290.91 56.12Q290.91 46.55 289.61 41.14Q288.31 35.74 285.24 33.55Q282.18 31.37 276.87 31.37L276.87 31.37Q270.53 31.37 265.54 31.37L265.54 31.37Q265.02 31.47 264.60 31.47L264.60 31.47Z M340.52 39.27L340.52 39.27Q353.52 39.27 359.19 43.69Q364.86 48.11 364.86 56.85L364.86 56.85Q364.96 63.92 361.32 67.40Q357.68 70.89 348.74 70.89L348.74 70.89L330.43 70.89Q330.74 73.28 331.26 74.84L331.26 74.84Q332.41 78.38 335.16 79.73Q337.92 81.08 342.81 81.08L342.81 81.08Q346.34 81.08 351.60 80.82Q356.85 80.56 362.15 79.94L362.15 79.94L363.61 89.40Q360.59 90.86 356.74 91.69Q352.90 92.52 348.84 92.88Q344.78 93.25 341.04 93.25L341.04 93.25Q331.26 93.25 325.28 90.39Q319.30 87.53 316.65 81.60Q314.00 75.67 314.00 66.42L314.00 66.42Q314.00 56.33 316.70 50.40Q319.41 44.47 325.23 41.87Q331.06 39.27 340.52 39.27ZM330.12 62.26L330.12 62.26L344.47 62.26Q348.01 62.26 349.00 60.75Q349.98 59.24 349.98 56.54L349.98 56.54Q349.88 52.90 347.85 51.49Q345.82 50.09 341.04 50.09L341.04 50.09Q336.78 50.09 334.38 51.23Q331.99 52.38 331.06 55.60L331.06 55.60Q330.33 58.10 330.12 62.26Z M407.70 40.62L424.03 40.62L407.08 88.36Q406.46 90.02 405.16 91.01Q403.86 92 402.09 92L402.09 92L388.67 92Q386.90 92 385.60 91.01Q384.30 90.02 383.68 88.36L383.68 88.36L366.73 40.62L383.06 40.62L392.52 72.76Q393.14 75.05 393.66 77.44Q394.18 79.83 394.70 82.02L394.70 82.02L396.06 82.02Q396.68 79.73 397.25 77.39Q397.82 75.05 398.45 72.76L398.45 72.76L407.70 40.62Z" fill="#F1F5F9"></path>
<line x1="200" y1="24" x2="161" y2="88" stroke="#0D9488" stroke-width="9" stroke-linecap="round"></line>
<rect x="162.65" y="104" width="36.09" height="5" rx="2" fill="#0D9488"></rect>
</svg>
